X:8
T:Scottish du Pays de Retz
I:last changed 14/2/2016
F:http://www.campin.me.uk/Music/Edinbal.abc
S:Erwan Tanguy, http://www.youtube.com/watch?v=HjE6LoWkKmI
M:4/4
L:1/8
P:AABB
K:AMin
P:A
ABcd c2c2|Bcdc B4  |e2B2 e2B2|cdcB [1 c2A2:|\
                                   [2 A4  ||
P:B
e2de f2d2|d2cd e2c2|e2B2 e2B2|cdcB [1 c2A2:|\
                                   [2 A4  |]

